X:1
T:Title
%%score [ ( 1 2 ) ( 3 4 ) ] { ( 5 6 ) | ( 7 8 ) }
L:1/8
Q:1/4=120
M:4/4
K:Eb
V:1 treble nm="Midi_74"
V:2 treble 
V:3 bass nm="Midi_74"
V:4 bass 
V:5 treble nm="Org."
V:6 treble 
V:7 bass 
V:8 bass 
V:1
 G8 | (F3 G) A4 | G8 || B8 | A4 G4 | c4 =A4 | B8 || B8 | (A3 B) c4 | B8 || e8 | d4 c4 | %12
"^William Henry Havergal\n(1793-1870)" f4 d4 | e8 |] %14
V:2
 E8 | (D3 E) F4 | E8 || F8 | (E3 F) E4 | E4 E4 | D8 || G8 | (F3 G) A4 | G8 || E8 | (F3 E) E4 | %12
 A4 A4 | G8 |] %14
V:3
 B,8 | (_C3 B,) A,4 | B,8 || B,8 | (C3 B,) B,4 | E4 C4 | B,8 || B,8 | (_C3 B,) A,4 | E8 || B,8 | %11
 (A,3 B,) A,4 | C4 B,4 | B,8 |] %14
V:4
 E,8 | E,4 E,4 | E,8 || D,8 | (C,3 D,) E,4 | C,4 F,4 | B,,8 || E,8 | E,4 E,4 | E,8 || G,8 | %11
 (F,3 G,) A,4 | F,4 B,4 | E,8 |] %14
V:5
 G8 | F3 G A4 | G8 || B8 | A4 G4 | c4 =A4 | B8 || B8 | A3 B c4 | B8 || e8 | d4 c4 | f4 d4 | e8 |] %14
V:6
 E8 | D3 E F4 | E8 || [B,F]8 | [CE]3 [B,F] [B,E]4 | [CEG]4 [CE]4 | [B,D]8 || G8 | F3 G A4 | G8 || %10
 [EB]8 | [FA]3 [EB] [EA]4 | [FA]4 [FA]4 | [EG]8 |] %14
V:7
 B,8 | _C3 B, A,4 | B,8 || x8 | x8 | x8 | x8 || B,8 | _C3 B, A,4 | E8 || x8 | x8 | x8 | x8 |] %14
V:8
 E,8 | E,4 E,4 | E,8 || D,8 | C,3 D, E,4 | C,4 F,4 | B,,8 || E,8 | E,4 E,4 | E,8 || G,8 | %11
 F,3 G, A,4 | F,4 B,4 | E,8 |] %14

